packages/assets/files/fram/mono/transportation/Bus.svg

<svg width="40" height="40" viewBox="0 0 40 40" fill="none"
  xmlns="http://www.w3.org/2000/svg">
  <path d="M0.0703125 10.3023C0.0078125 10.4273 -0.0130208 14.2606 0.0078125 18.7814L0.0703125 27.0106L3.44531 27.0731L6.79948 27.1148L6.94531 26.2398C7.27865 24.2606 8.40365 22.9898 10.1953 22.5314C12.5911 21.9273 14.8203 23.5523 15.2786 26.2189L15.4245 27.1148H19.987H24.5495V26.4898C24.5495 25.1773 25.6328 23.4689 26.8411 22.8439C28.3828 22.0731 30.1328 22.3231 31.4661 23.5314C32.4453 24.4064 32.8828 25.3023 32.8828 26.3856V27.1148L36.3828 27.0731L39.862 27.0106L39.9245 18.8023C39.9453 12.9273 39.9036 10.5106 39.737 10.3231C39.4036 9.90644 0.216146 9.88561 0.0703125 10.3023ZM9.54948 16.8023V20.0314H5.69531H1.84115V16.8023V13.5731H5.69531H9.54948V16.8023ZM19.1328 16.8023V20.0314H15.2786H11.4245V16.8023V13.5731H15.2786H19.1328V16.8023ZM28.5078 16.8023V20.0314H24.6536H20.7995V16.8023V13.5731H24.6536H28.5078V16.8023ZM37.8828 16.8023V20.0314H34.0286H30.1745V16.8023V13.5731H34.0286H37.8828V16.8023Z" fill="black"/>
  <path d="M9.63284 23.5523C7.09117 24.6981 7.04951 28.3023 9.54951 29.5523C10.0495 29.8231 10.7578 30.0314 11.112 30.0314C12.1537 30.0314 13.5495 29.1981 14.0912 28.2606C14.4662 27.6148 14.5495 27.1981 14.487 26.3231C14.3828 24.9898 13.9037 24.2606 12.6745 23.6148C11.5703 23.0523 10.7578 23.0314 9.63284 23.5523Z" fill="black"/>
  <path d="M27.5911 23.3648C26.2786 23.7606 25.3828 25.0939 25.3828 26.6564C25.3828 29.1564 27.9661 30.7398 30.2578 29.6356C31.5078 29.0314 32.1328 27.9898 32.1328 26.5939C32.1328 24.1981 29.9661 22.6564 27.5911 23.3648Z" fill="black"/>
</svg>

<svg xmlns="http://www.w3.org/2000/svg" width="40" height="40" fill="none"><path fill="#000" d="M.07 10.302c-.062.125-.083 3.959-.062 8.48L.07 27.01l3.375.062 3.354.042.146-.875c.334-1.98 1.459-3.25 3.25-3.709 2.396-.604 4.625 1.021 5.084 3.688l.146.896h9.125v-.625c0-1.313 1.083-3.021 2.291-3.646 1.542-.77 3.292-.52 4.625.687.98.875 1.417 1.771 1.417 2.855v.729l3.5-.042 3.479-.062.063-8.209c.02-5.875-.021-8.291-.188-8.479-.333-.417-39.52-.437-39.667-.02Zm9.48 6.5v3.23H1.84v-6.459H9.55v3.23Zm9.583 0v3.23h-7.708v-6.459h7.708v3.23Zm9.375 0v3.23h-7.709v-6.459h7.709v3.23Zm9.375 0v3.23h-7.709v-6.459h7.709v3.23Z"/><path fill="#000" d="M9.633 23.552c-2.542 1.146-2.583 4.75-.083 6 .5.271 1.208.48 1.562.48 1.042 0 2.438-.834 2.98-1.771.374-.646.457-1.063.395-1.938-.104-1.333-.583-2.062-1.813-2.708-1.104-.563-1.916-.584-3.041-.063ZM27.591 23.365c-1.312.396-2.208 1.729-2.208 3.291 0 2.5 2.583 4.084 4.875 2.98 1.25-.605 1.875-1.646 1.875-3.042 0-2.396-2.167-3.938-4.542-3.23Z"/></svg>
